static/img/kroki/cc70e63699d2fee659d1d3ba3133b48f.svg

<?xml version="1.0" encoding="us-ascii" standalone="no"?><svg xmlns="http://www.w3.org/2000/svg" xmlns:xlink="http://www.w3.org/1999/xlink" contentStyleType="text/css" height="152px" preserveAspectRatio="none" style="width:290px;height:152px;" version="1.1" viewBox="0 0 290 152" width="290px" zoomAndPan="magnify"><defs/><g><!--class aws_kms_key--><g id="elem_aws_kms_key"><rect codeLine="23" fill="#3D176E" height="39.7891" id="aws_kms_key" rx="2.5" ry="2.5" style="stroke:#000D19;stroke-width:0.5;" width="158" x="66" y="106.79"/><ellipse cx="81" cy="126.6845" fill="#ADD1B2" rx="11" ry="11" style="stroke:#181818;stroke-width:1.0;"/><path d="M83.9688,132.3252 Q83.3906,132.622 82.75,132.7627 Q82.1094,132.9189 81.4063,132.9189 Q78.9063,132.9189 77.5781,131.2783 Q76.2656,129.622 76.2656,126.497 Q76.2656,123.372 77.5781,121.7158 Q78.9063,120.0595 81.4063,120.0595 Q82.1094,120.0595 82.75,120.2158 Q83.4063,120.372 83.9688,120.6689 L83.9688,123.3877 Q83.3438,122.8095 82.75,122.5439 Q82.1563,122.2627 81.5313,122.2627 Q80.1875,122.2627 79.5,123.3408 Q78.8125,124.4033 78.8125,126.497 Q78.8125,128.5908 79.5,129.6689 Q80.1875,130.7314 81.5313,130.7314 Q82.1563,130.7314 82.75,130.4658 Q83.3438,130.1845 83.9688,129.6064 L83.9688,132.3252 Z " fill="#000000"/><text fill="#D9B8FF" font-family="Helvetica" font-size="17" lengthAdjust="spacing" textLength="116" x="100" y="132.5698">aws_kms_key</text></g><!--class aws_secretsmanager_secret--><g id="elem_aws_secretsmanager_secret"><rect codeLine="26" fill="#3D176E" height="39.7891" id="aws_secretsmanager_secret" rx="2.5" ry="2.5" style="stroke:#000D19;stroke-width:0.5;" width="276" x="7" y="7"/><ellipse cx="22" cy="26.8945" fill="#ADD1B2" rx="11" ry="11" style="stroke:#181818;stroke-width:1.0;"/><path d="M24.9688,32.5352 Q24.3906,32.832 23.75,32.9727 Q23.1094,33.1289 22.4063,33.1289 Q19.9063,33.1289 18.5781,31.4883 Q17.2656,29.832 17.2656,26.707 Q17.2656,23.582 18.5781,21.9258 Q19.9063,20.2695 22.4063,20.2695 Q23.1094,20.2695 23.75,20.4258 Q24.4063,20.582 24.9688,20.8789 L24.9688,23.5977 Q24.3438,23.0195 23.75,22.7539 Q23.1563,22.4727 22.5313,22.4727 Q21.1875,22.4727 20.5,23.5508 Q19.8125,24.6133 19.8125,26.707 Q19.8125,28.8008 20.5,29.8789 Q21.1875,30.9414 22.5313,30.9414 Q23.1563,30.9414 23.75,30.6758 Q24.3438,30.3945 24.9688,29.8164 L24.9688,32.5352 Z " fill="#000000"/><text fill="#D9B8FF" font-family="Helvetica" font-size="17" lengthAdjust="spacing" textLength="234" x="41" y="32.7798">aws_secretsmanager_secret</text></g><!--link aws_secretsmanager_secret to aws_kms_key--><g id="link_aws_secretsmanager_secret_aws_kms_key"><path codeLine="29" d="M145,47.22 C145,64.36 145,83.27 145,100.41 " fill="none" id="aws_secretsmanager_secret-to-aws_kms_key" style="stroke:#1A83AF;stroke-width:2.0;"/><polygon fill="#1A83AF" points="145,106.41,149,97.41,145,101.41,141,97.41,145,106.41" style="stroke:#1A83AF;stroke-width:2.0;"/></g><!--SRC=[XP11IyD048Nl-HKBEHSIWwQz2B5Gz5B4UXEHQNOsMPBT3RDRGnJ_kusjiYPDUzZ3llSnxysKaYD3rRYEALHR91lOIke621JBY4oxDBKX5We18ac7vifeTn5OWq9sZ_KxEfd3a7WkPLvfj9PTUTOTv5L1PgVvORmZq7PleNOUjQp1simvajkTGwyCNspdGWp9uT0muN5wWoFC44Sw8b4KyNWnH2v6dTtxZzZ83sInVxIrSJYgEOhueSwsx0clv6ZHNt-ouoDmBdN1hZtjwT29DD8_VLC2DsrF2wYj7sCT4XhNDRWSROMBEHVfIVXX2Wxo_dGCMljMgVt3Zdq6mPSdMym9dLMWeK0wVW_Gj3rx2UDidcIhrzcjFppu1W00]--></g></svg>

<svg xmlns="http://www.w3.org/2000/svg" width="290" height="152" viewBox="0 0 290 152"><rect width="158" height="39.789" x="66" y="106.79" fill="#3D176E" rx="2.5" ry="2.5" style="stroke:#000d19;stroke-width:.5"/><circle cx="81" cy="126.684" r="11" fill="#ADD1B2" style="stroke:#181818;stroke-width:1"/><path d="M83.969 132.325q-.578.297-1.219.438-.64.156-1.344.156-2.5 0-3.828-1.64-1.312-1.657-1.312-4.782t1.312-4.781q1.328-1.656 3.828-1.656.703 0 1.344.156.656.156 1.219.453v2.719q-.625-.579-1.219-.844-.594-.281-1.219-.281-1.344 0-2.031 1.078-.687 1.062-.687 3.156t.687 3.172q.688 1.062 2.031 1.062.625 0 1.219-.265.594-.281 1.219-.86z"/><text x="100" y="132.57" fill="#D9B8FF" font-family="Helvetica" font-size="17" textLength="116">aws_kms_key</text><rect width="276" height="39.789" x="7" y="7" fill="#3D176E" rx="2.5" ry="2.5" style="stroke:#000d19;stroke-width:.5"/><circle cx="22" cy="26.895" r="11" fill="#ADD1B2" style="stroke:#181818;stroke-width:1"/><path d="M24.969 32.535q-.578.297-1.219.438-.64.156-1.344.156-2.5 0-3.828-1.64-1.312-1.657-1.312-4.782t1.312-4.781q1.328-1.656 3.828-1.656.703 0 1.344.156.656.156 1.219.453v2.719q-.625-.578-1.219-.844-.594-.281-1.219-.281-1.343 0-2.031 1.078-.687 1.062-.687 3.156t.687 3.172q.688 1.062 2.031 1.062.625 0 1.219-.265.594-.281 1.219-.86z"/><text x="41" y="32.78" fill="#D9B8FF" font-family="Helvetica" font-size="17" textLength="234">aws_secretsmanager_secret</text><path fill="none" d="M145 47.22v53.19" style="stroke:#1a83af;stroke-width:2"/><path fill="#1A83AF" d="m145 106.41 4-9-4 4-4-4z" style="stroke:#1a83af;stroke-width:2"/></svg>
